X:1816
T:Bourree
N:abc transcription Simon Wascher
N:if you find an error in this transcription please inform simon.wascher@chello.at
M:3/8
L:1/16
K:Gm
G2B2G2|e4d2|BABcdB|A2BcBA|
G2B2G2|e4d2|BABcdB|A4-A2:|
|:G2BGBG|F2AFAF|E2GEGE|D2E2^F2|
G2BGBG|F2AFAF|E2G2E2|^F6:|


